src/components/00-materials/images-raw/VAN.svg

<svg width="96" height="96" viewBox="0 0 96 96" fill="none" xmlns="http://www.w3.org/2000/svg">
<path d="M91.42 63V48.56C91.4265 47.1412 91.124 45.7381 90.5334 44.448C89.9427 43.158 89.0783 42.0121 88 41.09L70.37 27.89L69.52 27.19C65.07 23.74 61.53 22 55.9 22H19.07C10.36 22 8.6 23.9 8 26.55L5 41V63M13 71H7C5.93913 71 4.92172 70.5786 4.17157 69.8284C3.42143 69.0783 3 68.0609 3 67V65C3 64.4696 3.21071 63.9609 3.58579 63.5858C3.96086 63.2107 4.46957 63 5 63H15L13 71ZM64.23 71H32H64.23ZM81.44 63H91.44C91.9704 63 92.4791 63.2107 92.8542 63.5858C93.2293 63.9609 93.44 64.4696 93.44 65V67C93.44 68.0609 93.0186 69.0783 92.2684 69.8284C91.5183 70.5786 90.5009 71 89.44 71H82.89L81.44 63ZM30 63H66.73H30Z" stroke="#00008F" stroke-width="2" stroke-linecap="round" stroke-linejoin="round"/>
<path d="M53.42 45H79.42V42C79.4255 41.6962 79.3618 41.3951 79.2336 41.1196C79.1054 40.8441 78.916 40.6014 78.68 40.41L64.4 30.41C62.4727 28.851 60.0689 28.0003 57.59 28H53.42V45ZM53.42 45V62M91.42 52H87.92C87.257 52 86.6211 51.7366 86.1522 51.2678C85.6834 50.7989 85.42 50.163 85.42 49.5V39.35M47.42 53H14.42M45.42 40V44M6 37H8.5C9.16304 37 9.79893 37.2634 10.2678 37.7322C10.7366 38.2011 11 38.837 11 39.5V45.5C11 45.8283 10.9353 46.1534 10.8097 46.4567C10.6841 46.76 10.4999 47.0356 10.2678 47.2678C10.0356 47.4999 9.76002 47.6841 9.45671 47.8097C9.15339 47.9353 8.8283 48 8.5 48H5L6 37Z" stroke="#00008F" stroke-width="2" stroke-linecap="round" stroke-linejoin="round"/>
<path d="M22.79 78.4198C27.8434 78.4198 31.94 74.2606 31.94 69.1298C31.94 63.9991 27.8434 59.8398 22.79 59.8398C17.7366 59.8398 13.64 63.9991 13.64 69.1298C13.64 74.2606 17.7366 78.4198 22.79 78.4198Z" stroke="#00008F" stroke-width="2" stroke-linecap="round" stroke-linejoin="round"/>
<path d="M22.79 73.3502C25.082 73.3502 26.94 71.4608 26.94 69.1301C26.94 66.7995 25.082 64.9102 22.79 64.9102C20.498 64.9102 18.64 66.7995 18.64 69.1301C18.64 71.4608 20.498 73.3502 22.79 73.3502Z" stroke="#00008F" stroke-width="2" stroke-linecap="round" stroke-linejoin="round"/>
<path d="M73.79 78.4198C78.8434 78.4198 82.94 74.2606 82.94 69.1298C82.94 63.9991 78.8434 59.8398 73.79 59.8398C68.7366 59.8398 64.64 63.9991 64.64 69.1298C64.64 74.2606 68.7366 78.4198 73.79 78.4198Z" stroke="#00008F" stroke-width="2" stroke-linecap="round" stroke-linejoin="round"/>
<path d="M73.79 73.3502C76.082 73.3502 77.94 71.4608 77.94 69.1301C77.94 66.7995 76.082 64.9102 73.79 64.9102C71.498 64.9102 69.64 66.7995 69.64 69.1301C69.64 71.4608 71.498 73.3502 73.79 73.3502Z" stroke="#00008F" stroke-width="2" stroke-linecap="round" stroke-linejoin="round"/>
</svg>

<svg width="96" height="96" viewBox="0 0 96 96" fill="none" xmlns="http://www.w3.org/2000/svg"><path d="M91.42 63V48.56A9.77 9.77 0 0088 41.09l-17.63-13.2-.85-.7C65.07 23.74 61.53 22 55.9 22H19.07C10.36 22 8.6 23.9 8 26.55L5 41v22m8 8H7a4 4 0 01-4-4v-2a2 2 0 012-2h10l-2 8zm51.23 0H32h32.23zm17.21-8h10a2 2 0 012 2v2a4 4 0 01-4 4h-6.55l-1.45-8zM30 63h36.73H30z" stroke="#00008F" stroke-width="2" stroke-linecap="round" stroke-linejoin="round"/><path d="M53.42 45h26v-3a2 2 0 00-.74-1.59l-14.28-10A10.83 10.83 0 0057.59 28h-4.17v17zm0 0v17m38-10h-3.5a2.5 2.5 0 01-2.5-2.5V39.35M47.42 53h-33m31-13v4M6 37h2.5a2.5 2.5 0 012.5 2.5v6A2.5 2.5 0 018.5 48H5l1-11zM22.79 78.42c5.053 0 9.15-4.16 9.15-9.29 0-5.13-4.097-9.29-9.15-9.29s-9.15 4.16-9.15 9.29c0 5.13 4.097 9.29 9.15 9.29z" stroke="#00008F" stroke-width="2" stroke-linecap="round" stroke-linejoin="round"/><path d="M22.79 73.35c2.292 0 4.15-1.89 4.15-4.22s-1.858-4.22-4.15-4.22c-2.292 0-4.15 1.89-4.15 4.22s1.858 4.22 4.15 4.22zM73.79 78.42c5.053 0 9.15-4.16 9.15-9.29 0-5.13-4.097-9.29-9.15-9.29s-9.15 4.16-9.15 9.29c0 5.13 4.097 9.29 9.15 9.29z" stroke="#00008F" stroke-width="2" stroke-linecap="round" stroke-linejoin="round"/><path d="M73.79 73.35c2.292 0 4.15-1.89 4.15-4.22s-1.858-4.22-4.15-4.22c-2.292 0-4.15 1.89-4.15 4.22s1.858 4.22 4.15 4.22z" stroke="#00008F" stroke-width="2" stroke-linecap="round" stroke-linejoin="round"/></svg>
